X:1
T:Beautiful Christmas
T:Rigdon McCoy McIntosh
T:Beautiful Christmas
T:Public Domain
T:Public Domain
C:Rigdon McCoy McIntosh
Z:Public Domain
%%score ( 1 2 ) ( 3 4 )
L:1/8
M:4/4
K:A
V:1 treble 
V:2 treble 
V:3 bass 
V:4 bass 
V:1
 [CE]2 [Ec]2 [Ec]2 [EA][EA] | [EB][EA][EB][Ec] [EB]2 [EG][EG] | [EA]2 [DF]2 [CE]2 [EA][EA] | %3
w: 1.~O’er the hills and a-|down the snow- y dells, As the|ech- oes ring of the|
w: 2.~Bring good will to the|suf- fer- ing and sad; Speak the|ten- der word that shall|
w: 3.~Peace on earth! bid all|strife and tu- mult cease; For this|night a- gain gives the|
w: 4.~So glad hearts on this|hap- py Christ- mas night Bring your|gifts of love, make His|
 [EG]2 [EA]2 [EB]4 | [CE]2 [Ec]2 [Ec]2 [EA][EA] | [EB][EA][EB][Ec] [EB]2 [EG][EG] | %6
w: Christ- mas bells,|An- gel songs in our|hearts re- sound a- gain, Sing- ing|
w: make them glad;|Tell them how, o’er the|hills of Beth- le- hem When the|
w: Lord His peace;|While our hands shall His|tem- ple beau- ti- fy, Car- ol,|
w: al- tar bright;|Sing glad songs that shall|sweet- ly sound as when An- gels|
 [EA]2 [DF]2 [CE]2 [EA][EA] | [EG]2 [EB]2 [EA]4 ||"^Refrain" [EB]2 [EB]>[EB] [Ee]2 E2 | %9
w: peace on earth and good|will to men!||
w: an- gels sang, ’twas good|news for them.|Bring pine and fir tree,|
w: glo- ry be un- to|God most high.||
w: sang of peace and good|will to men.||
 [EF][EG][EA][EB] [Ec]4 | [Ed]2 [Gd]>[Gd] [Gd]2 [GB]2 | [Ge][Gd][Ac][EB] [EA]4 | %12
w: |||
w: the gar- lands bright, Glad-|den the tem- ple of|the King to- night! Christ-|
w: |||
w: |||
 [DF]2 [Fd]>[Fd] [Fd]4 | [CE]2 [Ec]>[Ec] [Ec]4 | [EB]2 [EB]2 [Ec][GB]A[GB] | [Ac]2 (FA) [Ge]4 |] %16
w: ||||
w: mas is here! Fill|it with cheer; Make|it glo- ri- ous with joy|light. * * *|
w: ||||
w: ||||
V:2
 x8 | x8 | x8 | x8 | x8 | x8 | x8 | x8 || x6 E2 | x8 | x8 | x8 | x8 | x8 | x6 A x | x2 ^d2 x4 |] %16
w: ||||||||||||||||
w: ||||||||weave||||||and||
V:3
 [A,,A,]2 [A,,A,]2 [A,,A,]2 [A,,C][A,,C] | [E,D][E,C][E,B,][E,A,] [E,G,]2 [E,B,][E,B,] | %2
 [C,A,]2 [D,A,]2 [A,,A,]2 [C,A,][C,A,] | [B,,B,]2 (CA,) [E,G,]4 | %4
 [A,,A,]2 [A,,A,]2 [A,,A,]2 [A,,C][A,,C] | [E,D][E,C][E,B,][E,A,] [E,G,]2 [E,B,][E,B,] | %6
 [C,A,]2 [D,A,]2 [A,,A,]2 [A,,C][A,,C] | [E,B,]2 [E,D]2 [A,,C]4 || %8
 [E,G,]2 [E,G,]>[E,G,] [E,G,]2 [C,A,]2 | [D,A,][D,B,][D,A,][E,G,] A,4 | %10
 [E,B,]2 [E,B,]>[E,B,] [E,B,]2 [E,D]2 | [E,C][E,B,][E,E][E,D] [A,,C]4 | %12
 [D,A,]2 [D,A,]>[D,A,] [D,A,]4 | A,2 A,>A, A,4 | [E,G,]2 [E,G,]2 [E,A,][E,B,][E,C][E,E] | %15
 [B,E]2 B,2 [E,B,]4 |] %16
V:4
 x8 | x8 | x8 | x2 A,,2 x4 | x8 | x8 | x8 | x8 || x8 | x4 A,4 | x8 | x8 | x8 | A,2 A,>A, A,4 | x8 | %15
 x2 B,2 x4 |] %16

